Obsidian/status/22s/indicator-workspaces-5.svg

<svg height="22" width="22" xmlns="http://www.w3.org/2000/svg"><path d="m5 3c-1.108 0-2 .892-2 2v9c0 1.108.892 2 2 2h4l-2.2890625 2c-1.0374129.9062-.9473684 1 0 1h7.5781245c.947369 0 .947368 0 0-1l-2.289062-2h4c1.108 0 2-.892 2-2v-9c0-1.108-.892-2-2-2zm0 2h11v9h-11zm3 1v1 2 1h4v2h-4v1h4 1v-3-1h-1-3v-2h4v-1h-4z" fill="#d3dae3"/></svg>

<svg xmlns="http://www.w3.org/2000/svg" width="22" height="22" version="1.1">
 <defs>
  <style id="current-color-scheme" type="text/css">
   .ColorScheme-Text { color:#d3dae3; } .ColorScheme-Highlight { color:#5294e2; }
  </style>
 </defs>
 <path style="fill:currentColor" class="ColorScheme-Text" d="M 5,3 C 3.892,3 3,3.892 3,5 l 0,9 c 0,1.108 0.892,2 2,2 l 4,0 -2.2890625,2 c -1.0374129,0.9062 -0.9473684,1 0,1 l 7.5781245,0 c 0.947369,0 0.947368,0 0,-1 L 12,16 l 4,0 c 1.108,0 2,-0.892 2,-2 L 18,5 C 18,3.892 17.108,3 16,3 L 5,3 Z m 0,2 11,0 0,9 -11,0 0,-9 z m 3,1 0,1 0,2 0,1 4,0 0,2 -4,0 0,1 4,0 1,0 0,-3 L 13,9 12,9 9,9 9,7 13,7 13,6 9,6 8,6 Z"/>
</svg>
